build/assets/img/icons/wild-card.svg

<svg viewBox="0 0 128 128" xmlns="http://www.w3.org/2000/svg"><path d="m9.5 8.5h109v91h-109z" fill="#ffab00"/><path d="m118.5 101h-109c-.8 0-1.5-.7-1.5-1.5v-91c0-.8.7-1.5 1.5-1.5h109c.8 0 1.5.7 1.5 1.5v91c0 .8-.7 1.5-1.5 1.5zm-107.5-3h106v-88h-106z" fill="#37474f"/><path d="m9.5 27.5h109v92h-109z" fill="#fff"/><path d="m118.5 121h-109c-.8 0-1.5-.7-1.5-1.5v-92c0-.8.7-1.5 1.5-1.5h109c.8 0 1.5.7 1.5 1.5v92c0 .8-.7 1.5-1.5 1.5zm-107.5-3h106v-89h-106z" fill="#37474f"/><path d="m54.5 96.5 15.8-47h3.8l-15.9 47z" fill="#ffab00"/><path d="m58.3 98h-3.8c-.5 0-.9-.2-1.2-.6s-.3-.9-.2-1.4l15.8-47c.2-.6.8-1 1.4-1h3.8c.5 0 .9.2 1.2.6s.4.9.2 1.4l-15.8 47c-.2.6-.7 1-1.4 1zm-1.7-3h.6l14.9-44h-.7z" fill="#ffab00"/><g fill="#37474f"><path d="m19.5 71.8 27-15.6v4.5l-22 12.8v.1l22 12.8v4.5l-27-15.6z"/><path d="m46.5 92.4c-.3 0-.5-.1-.8-.2l-27-15.6c-.5-.3-.7-.8-.7-1.3v-3.5c0-.5.3-1 .7-1.3l27-15.6c.5-.3 1-.3 1.5 0s.8.8.8 1.3v4.5c0 .5-.3 1-.7 1.3l-19.9 11.5 19.9 11.6c.5.3.7.8.7 1.3v4.5c0 .5-.3 1-.8 1.3-.2.2-.4.2-.7.2zm-25.5-18 24 13.9v-1.1l-21.3-12.3c-.5-.3-.7-.8-.7-1.3v-.1c0-.5.3-1 .7-1.3l21.3-12.4v-1l-24 13.8z"/><path d="m107.5 75.3-26 15.6v-4.5l23-12.8v-.1l-23-12.8v-4.5l26 15.6z"/><path d="m81.5 92.4c-.3 0-.5-.1-.7-.2-.5-.2-.8-.7-.8-1.3v-4.5c0-.5.3-1 .8-1.3l20.8-11.6-20.8-11.6c-.5-.3-.8-.8-.8-1.3v-4.5c0-.5.3-1 .8-1.3s1-.3 1.5 0l26 15.6c.5.3.7.8.7 1.3v3.7c0 .5-.3 1-.7 1.3l-26 15.6c-.3 0-.5.1-.8.1zm1.5-5.1v1l23-13.8v-.9c0 .5-.3 1-.8 1.3zm0-27.6 22.2 12.4c.5.3.8.8.8 1.3v-.9l-23-13.7z"/><path d="m87.1 18.6c0 .9-.8 1.7-1.7 1.7-1 0-1.7-.8-1.7-1.7s.8-1.7 1.7-1.7 1.7.8 1.7 1.7z"/><path d="m85.4 20.8c-1.2 0-2.2-1-2.2-2.2s1-2.2 2.2-2.2 2.2 1 2.2 2.2-1 2.2-2.2 2.2zm0-3.4c-.7 0-1.2.5-1.2 1.2s.5 1.2 1.2 1.2c.6 0 1.2-.5 1.2-1.2s-.5-1.2-1.2-1.2zm13.7 1.2c0 .9-.8 1.7-1.7 1.7s-1.7-.8-1.7-1.7.8-1.7 1.7-1.7 1.7.8 1.7 1.7z"/><path d="m97.3 20.8c-1.2 0-2.2-1-2.2-2.2s1-2.2 2.2-2.2 2.2 1 2.2 2.2c.1 1.2-1 2.2-2.2 2.2zm0-3.4c-.7 0-1.2.5-1.2 1.2s.5 1.2 1.2 1.2 1.2-.5 1.2-1.2c.1-.7-.5-1.2-1.2-1.2z"/><path d="m111 18.6c0 .9-.8 1.7-1.7 1.7-1 0-1.7-.8-1.7-1.7s.8-1.7 1.7-1.7 1.7.8 1.7 1.7z"/><path d="m109.3 20.8c-1.2 0-2.2-1-2.2-2.2s1-2.2 2.2-2.2 2.2 1 2.2 2.2-1 2.2-2.2 2.2zm0-3.4c-.7 0-1.2.5-1.2 1.2s.6 1.2 1.2 1.2 1.2-.5 1.2-1.2-.6-1.2-1.2-1.2z"/></g><path d="m26.3 17.5c0 2.1-1.7 3.7-3.7 3.7-2.1 0-3.7-1.7-3.7-3.7 0-2.1 1.7-3.7 3.7-3.7s3.7 1.7 3.7 3.7z" fill="#ffab00"/><path d="m22.5 22.8c-2.9 0-5.2-2.3-5.2-5.2s2.3-5.2 5.2-5.2 5.2 2.3 5.2 5.2c.1 2.8-2.3 5.2-5.2 5.2zm0-7.5c-1.2 0-2.2 1-2.2 2.2s1 2.2 2.2 2.2 2.2-1 2.2-2.2c.1-1.2-.9-2.2-2.2-2.2z" fill="#37474f"/><path d="m39.4 17.5c0 2.1-1.7 3.7-3.7 3.7-2.1 0-3.7-1.7-3.7-3.7 0-2.1 1.7-3.7 3.7-3.7 2.1 0 3.7 1.7 3.7 3.7z" fill="#b0bec5"/><path d="m35.7 22.8c-2.9 0-5.2-2.3-5.2-5.2s2.3-5.2 5.2-5.2 5.2 2.3 5.2 5.2c0 2.8-2.3 5.2-5.2 5.2zm0-7.5c-1.2 0-2.2 1-2.2 2.2s1 2.2 2.2 2.2 2.2-1 2.2-2.2-1-2.2-2.2-2.2z" fill="#37474f"/><path d="m52.6 17.5c0 2.1-1.7 3.7-3.7 3.7-2.1 0-3.7-1.7-3.7-3.7 0-2.1 1.7-3.7 3.7-3.7s3.7 1.7 3.7 3.7z" fill="#ffecb3"/><path d="m48.9 22.8c-2.9 0-5.2-2.3-5.2-5.2s2.3-5.2 5.2-5.2 5.2 2.3 5.2 5.2c0 2.8-2.3 5.2-5.2 5.2zm0-7.5c-1.2 0-2.2 1-2.2 2.2s1 2.2 2.2 2.2 2.2-1 2.2-2.2-1-2.2-2.2-2.2z" fill="#37474f"/></svg>

<?xml version="1.0" encoding="utf-8"?>
<!-- Generator: Adobe Illustrator 20.0.0, SVG Export Plug-In . SVG Version: 6.00 Build 0)  -->
<svg version="1.1" id="Layer_1" xmlns="http://www.w3.org/2000/svg" xmlns:xlink="http://www.w3.org/1999/xlink" x="0px" y="0px"
	 viewBox="0 0 128 128" style="enable-background:new 0 0 128 128;" xml:space="preserve">
<style type="text/css">
	.st0{fill:#FFAB00;}
	.st1{fill:#37474F;}
	.st2{fill:#FFFFFF;}
	.st3{fill:#B0BEC5;}
	.st4{fill:#FFECB3;}
</style>
<g>
	<g>
		<g>
			<rect x="9.5" y="8.5" class="st0" width="109" height="91"/>
		</g>
		<g>
			<path class="st1" d="M118.5,101H9.5c-0.8,0-1.5-0.7-1.5-1.5v-91C8,7.7,8.7,7,9.5,7h109c0.8,0,1.5,0.7,1.5,1.5v91
				C120,100.3,119.3,101,118.5,101z M11,98h106V10H11V98z"/>
		</g>
	</g>
	<g>
		<g>
			<rect x="9.5" y="27.5" class="st2" width="109" height="92"/>
		</g>
		<g>
			<path class="st1" d="M118.5,121H9.5c-0.8,0-1.5-0.7-1.5-1.5v-92C8,26.7,8.7,26,9.5,26h109c0.8,0,1.5,0.7,1.5,1.5v92
				C120,120.3,119.3,121,118.5,121z M11,118h106V29H11V118z"/>
		</g>
	</g>
	<g>
		<g>
			<g>
				<path class="st0" d="M54.5,96.5l15.8-47h3.8l-15.9,47H54.5z"/>
			</g>
			<g>
				<path class="st0" d="M58.3,98h-3.8c-0.5,0-0.9-0.2-1.2-0.6S53,96.5,53.1,96l15.8-47c0.2-0.6,0.8-1,1.4-1h3.8
					c0.5,0,0.9,0.2,1.2,0.6c0.3,0.4,0.4,0.9,0.2,1.4L59.7,97C59.5,97.6,59,98,58.3,98z M56.6,95h0.6l14.9-44h-0.7L56.6,95z"/>
			</g>
		</g>
		<g>
			<g>
				<g>
					<path class="st1" d="M19.5,71.8l27-15.6v4.5l-22,12.8v0.1l22,12.8v4.5l-27-15.6V71.8z"/>
				</g>
				<g>
					<path class="st1" d="M46.5,92.4c-0.3,0-0.5-0.1-0.8-0.2l-27-15.6c-0.5-0.3-0.7-0.8-0.7-1.3v-3.5c0-0.5,0.3-1,0.7-1.3l27-15.6
						c0.5-0.3,1-0.3,1.5,0s0.8,0.8,0.8,1.3v4.5c0,0.5-0.3,1-0.7,1.3L27.4,73.5l19.9,11.6c0.5,0.3,0.7,0.8,0.7,1.3v4.5
						c0,0.5-0.3,1-0.8,1.3C47,92.4,46.8,92.4,46.5,92.4z M21,74.4l24,13.9v-1.1L23.7,74.9c-0.5-0.3-0.7-0.8-0.7-1.3v-0.1
						c0-0.5,0.3-1,0.7-1.3L45,59.8v-1L21,72.6V74.4z"/>
				</g>
			</g>
			<g>
				<g>
					<path class="st1" d="M107.5,75.3l-26,15.6v-4.5l23-12.8v-0.1l-23-12.8v-4.5l26,15.6V75.3z"/>
				</g>
				<g>
					<path class="st1" d="M81.5,92.4c-0.3,0-0.5-0.1-0.7-0.2C80.3,92,80,91.5,80,90.9v-4.5c0-0.5,0.3-1,0.8-1.3l20.8-11.6L80.8,61.9
						c-0.5-0.3-0.8-0.8-0.8-1.3v-4.5c0-0.5,0.3-1,0.8-1.3s1-0.3,1.5,0l26,15.6c0.5,0.3,0.7,0.8,0.7,1.3v3.7c0,0.5-0.3,1-0.7,1.3
						l-26,15.6C82,92.3,81.8,92.4,81.5,92.4z M83,87.3v1l23-13.8v-0.9c0,0.5-0.3,1-0.8,1.3L83,87.3z M83,59.7l22.2,12.4
						c0.5,0.3,0.8,0.8,0.8,1.3v-0.9L83,58.8V59.7z"/>
				</g>
			</g>
		</g>
	</g>
	<g>
		<g>
			<g>
				<path class="st1" d="M87.1,18.6c0,0.9-0.8,1.7-1.7,1.7c-1,0-1.7-0.8-1.7-1.7c0-0.9,0.8-1.7,1.7-1.7
					C86.3,16.9,87.1,17.7,87.1,18.6z"/>
			</g>
			<g>
				<path class="st1" d="M85.4,20.8c-1.2,0-2.2-1-2.2-2.2s1-2.2,2.2-2.2s2.2,1,2.2,2.2S86.6,20.8,85.4,20.8z M85.4,17.4
					c-0.7,0-1.2,0.5-1.2,1.2s0.5,1.2,1.2,1.2c0.6,0,1.2-0.5,1.2-1.2S86.1,17.4,85.4,17.4z"/>
			</g>
		</g>
		<g>
			<g>
				<path class="st1" d="M99.1,18.6c0,0.9-0.8,1.7-1.7,1.7c-0.9,0-1.7-0.8-1.7-1.7c0-0.9,0.8-1.7,1.7-1.7
					C98.3,16.9,99.1,17.7,99.1,18.6z"/>
			</g>
			<g>
				<path class="st1" d="M97.3,20.8c-1.2,0-2.2-1-2.2-2.2s1-2.2,2.2-2.2s2.2,1,2.2,2.2C99.6,19.8,98.5,20.8,97.3,20.8z M97.3,17.4
					c-0.7,0-1.2,0.5-1.2,1.2s0.5,1.2,1.2,1.2s1.2-0.5,1.2-1.2C98.6,17.9,98,17.4,97.3,17.4z"/>
			</g>
		</g>
		<g>
			<g>
				<path class="st1" d="M111,18.6c0,0.9-0.8,1.7-1.7,1.7c-1,0-1.7-0.8-1.7-1.7c0-0.9,0.8-1.7,1.7-1.7S111,17.7,111,18.6z"/>
			</g>
			<g>
				<path class="st1" d="M109.3,20.8c-1.2,0-2.2-1-2.2-2.2s1-2.2,2.2-2.2s2.2,1,2.2,2.2S110.5,20.8,109.3,20.8z M109.3,17.4
					c-0.7,0-1.2,0.5-1.2,1.2s0.6,1.2,1.2,1.2s1.2-0.5,1.2-1.2S109.9,17.4,109.3,17.4z"/>
			</g>
		</g>
	</g>
	<g>
		<g>
			<path class="st0" d="M26.3,17.5c0,2.1-1.7,3.7-3.7,3.7c-2.1,0-3.7-1.7-3.7-3.7c0-2.1,1.7-3.7,3.7-3.7S26.3,15.5,26.3,17.5z"/>
		</g>
		<g>
			<path class="st1" d="M22.5,22.8c-2.9,0-5.2-2.3-5.2-5.2s2.3-5.2,5.2-5.2s5.2,2.3,5.2,5.2C27.8,20.4,25.4,22.8,22.5,22.8z
				 M22.5,15.3c-1.2,0-2.2,1-2.2,2.2s1,2.2,2.2,2.2s2.2-1,2.2-2.2C24.8,16.3,23.8,15.3,22.5,15.3z"/>
		</g>
	</g>
	<g>
		<g>
			<path class="st3" d="M39.4,17.5c0,2.1-1.7,3.7-3.7,3.7c-2.1,0-3.7-1.7-3.7-3.7c0-2.1,1.7-3.7,3.7-3.7
				C37.8,13.8,39.4,15.5,39.4,17.5z"/>
		</g>
		<g>
			<path class="st1" d="M35.7,22.8c-2.9,0-5.2-2.3-5.2-5.2s2.3-5.2,5.2-5.2s5.2,2.3,5.2,5.2C40.9,20.4,38.6,22.8,35.7,22.8z
				 M35.7,15.3c-1.2,0-2.2,1-2.2,2.2s1,2.2,2.2,2.2s2.2-1,2.2-2.2S36.9,15.3,35.7,15.3z"/>
		</g>
	</g>
	<g>
		<g>
			<path class="st4" d="M52.6,17.5c0,2.1-1.7,3.7-3.7,3.7c-2.1,0-3.7-1.7-3.7-3.7c0-2.1,1.7-3.7,3.7-3.7
				C50.9,13.8,52.6,15.5,52.6,17.5z"/>
		</g>
		<g>
			<path class="st1" d="M48.9,22.8c-2.9,0-5.2-2.3-5.2-5.2s2.3-5.2,5.2-5.2s5.2,2.3,5.2,5.2C54.1,20.4,51.8,22.8,48.9,22.8z
				 M48.9,15.3c-1.2,0-2.2,1-2.2,2.2s1,2.2,2.2,2.2s2.2-1,2.2-2.2C51.1,16.3,50.1,15.3,48.9,15.3z"/>
		</g>
	</g>
</g>
</svg>
